X:69
T:Moll in the Wad. TJD.69
M:6/8
L:1/8
Q:1/4=120
S:T.J.Dixon MS1, Lincolnshire, early 19thC
R:quick step
A:Lincolnshire, Holton le Moor
Z:vmp.R.Greig2010
K:D
c|BAB G2F|E2FG2A|BABG2B|AFD D2c|!
BAB G2F|E2FG2A|BcB dcB|AFDD2:|!
|:c|BGBd2d|BGBd2d|BGBd2d|ecAA2c|!
BGBd2d|BGBd2f|gfe dcB|AFDD2D:|]

